X:1
T:Christmas Comes Again
T:Christmas Comes Again
T:John Henry Hopkins, Jr.
T:John Henry Hopkins, Jr. (1820-1891)
T:Public Domain Courtesy of the Cyber Hymnal™
T:Public Domain Courtesy of the Cyber Hymnal™
C:John Henry Hopkins, Jr.
Z:Public Domain
Z:Courtesy of the Cyber Hymnal™
%%score ( 1 2 ) ( 3 4 ) ( 5 6 )
L:1/8
Q:1/4=105
M:4/4
K:G
V:1 treble 
V:2 treble 
V:3 treble 
V:4 treble 
V:5 bass 
V:6 bass 
V:1
 z8"^Lively" | z8 | G2 G2 G2 G2 | G4 F3 G | AGFE D2 A2 x2 | G6 z2 | [DB]2 [GB]2 [FB]2 [EB]2 | %7
w: ||1.~Christ- mas comes a-|gain, And the|mer- ry, mer- ry church bells|ring,|Christ- mas comes a-|
w: ||2.~Christ- mas comes a-|gain! See the|shep- herds on their wind- ing|way,|Christ- mas comes a-|
w: ||3.~Christ- mas comes a-|gain! Lo! the|In- fant in a man- ger|laid.|Christ- mas comes a-|
w: ||4.~Christ- mas comes a-|gain! Let the|tree with light- ed tap- ers|shine!|Christ- mas comes a-|
 [DB]4 [EA]3 [^GB] | [Ac][GB][FA][EG] [DF]2 [Fd]2 | [GB]4 z2 [Bd]2 | %10
w: gain, Loud the|hap- py lit- tle child- ren|sing. Now|
w: gain! At their|feet the lit- tle lamb- kins|play. Three|
w: gain! Ev- er|bless- èd is the mo- ther|maid. Bright|
w: gain! All its|pret- ty things are yours and|mine! Unload|
 [ce]2 ([Bd][Ac]) [Bd]2 [GB]2 x2 | [ce]2 ([Bd][Ac]) [Bd]2 [GB]2 x2 | %12
w: “Glo- ry * be to|God on * high,” Re-|
w: wise men * from the|east are * there, And|
w: an- gels * with their|harps are * nigh, And|
w: the gifts * from ev-|ery bough, * And give|
 [ce]2 ([Bd][Ac]) [Bd]2 ([Ac][GB]) | ([FA][EG]) ([DF][^CE]) D2 ([DE][=CF]) | %14
w: sounds once * more thro’ *|earth * and * sky; * *|
w: bring their * gifts both *|rich * and * rare; For *|
w: sing their * Sov- ereign’s *|lul- * la- * by; * *|
w: us all * our pre- *|sents * now! * * * *|
 [B,G]2 [EG]2 [DG]2 [CG]2 | [B,G]4 !>![DF]3 [EG] | [FA][EG][DF][^CE] D2 [=CFA]2 | [B,G]6 z2 | %18
w: ||||
w: Christ- mas comes a-|gain, And the|mer- ry, mer- ry church bells|ring,|
w: ||||
w: ||||
 [Fd]2 [Bd]2 [Ad]2 [Gd]2 | [Fd]4 [Gc]3 [Bd] | [ce][Bd][Ac][GB] [FA]2 !fermata!z C | %21
w: |||
w: Christ- mas comes a-|gain, Loud the|hap- py lit- tle child- ren|
w: |||
w: |||
 !fermata![B,G]8 |] %22
w: |
w: |
w: |
w: |
V:2
 x8 | x8 | G2 G2 G2 G2 | G4 F3 G | AGFE D2 A2 x2 | G6 x2 | x8 | x8 | x8 | x8 | x10 | x10 | x8 | %13
 x4 D2 x2 | x8 | x8 | x4 D2 x2 | x8 | x8 | x8 | x6 [Dd]2 | x8 |] %22
V:3
 G8- | G8 | [B,G]2 [EG]2 [DG]2 [CG]2 | G4 [DF]3 [DG] | [DA][DG][DF][^CE] D2 [=CA]2 x2 | %5
 (!tenuto![B,G]2 !tenuto![CDG]2 !tenuto![B,G]2) z2 | [DB]2 [GB]2 [FB]2 [EB]2 | B4 [EA]3 [^GB] | %8
 [Ac][GB][FA][EG] [DF]2 [DFd]2 | ([DGB]2 [DGA]2 [DAc]2) [Gd]2 | e2 d2 B2 x4 | e2 d2 B2 x4 | %12
 e2 [Gd]2 [Ac][GB] x2 | ([FA][EG]) ([DF][^CE]) D2"^riten." ([DE][=CF]) | %14
"^a tempo" [B,G]2 [EG]2 [DG]2 [CG]2 | G4 [DF]3 [EG] | [FA][EG][DF][^CE] D2 [=CFA]2 | G8 | %18
 [DFd]2 [DBd]2 [DAd]2 [DGd]2 | [DFd]4 !>![CGc]3 [DBd] | %20
 [Ece][DBd][CAc][B,GB] [A,FA]2 !fermata![CFd]2 | !fermata![B,DG]8 |] %22
V:4
 B,2 E2 D2 C2 | B,2 E2 D2 C2 | x8 | B,2 D2 x4 | x4 D2 x4 | x8 | x8 | D2 F2 x4 | x8 | x8 | %10
 G4 (dc) G4 | G4 (dc) G4 | G4 (dc) x2 | x4 D2 x2 | x8 | B,2 D2 x4 | x4 D2 x2 | B,2 C2 D2 E2 | x8 | %19
 x8 | x8 | x8 |] %22
V:5
 .[G,,G,]2 .[C,G,]2 .[B,,G,]2 .[A,,G,]2 | .[G,,G,]2 .[C,G,]2 .[B,,G,]2 .[A,,G,]2 | %2
 G,,2 C,2 B,,2 A,,2 | G,,2 B,,2 A,3 B, | CB,A,G, F,2 D,2 x2 | [G,,D,G,]6 z2 | %6
 [G,,G,]2 E,2 D,2 C,2 | B,,2 D,2 C,3 [B,,E,] | [A,,E,A,]4 [D,A,]2 [D,A,]2 | (G,2 D,2 G,2) B,2 | %10
 C2 (B,A,) B,2 D2 x2 | C2 (B,A,) B,2 D2 x2 | C2 (B,A,) B,2 [G,,G,]2 | %13
 A,2 A, ([D,F,-] F,)C, ([B,,G,][A,,A,]) | [G,,G,]2 [C,G,]2 [B,,G,]2 [A,,G,]2 | G,,2 B,,2 A,3 B, | %16
 CB,A,G, F,2 D,2 | G,8 | D,2 G,2 F,2 E,2 | D,4 E,3 D, | C,4 [D,,D,]2 !fermata![D,,D,]2 | %21
 !fermata![G,,D,G,]8 |] %22
V:6
 x8 | x8 | x8 | x4 D,4 | D,8 D,2 | x8 | x8 | x8 | x8 | G,,6 x2 | G,,8- x2 | G,,8- x2 | G,,6 x2 | %13
 A,,4 D,,4 | x8 | x4 D,4 | D,6 D,2 | .G,,2 .A,,2 .B,,2 .^C,2 | x8 | x8 | x8 | x8 |] %22

